svgs/box.svg

<svg width="192" height="192" viewBox="0 0 192 192" xmlns="http://www.w3.org/2000/svg"><path d="M174.59 129.29c1.997 2.781 1.597 6.357-.8 8.344-2.796 1.987-6.79 1.59-8.788-.795l-13.981-17.88-13.582 17.483c-1.998 2.781-5.992 2.781-8.789.795-2.796-1.987-3.195-5.563-1.198-8.345l15.979-20.661-15.98-20.662c-1.996-2.782-1.197-6.755 1.2-8.742 2.796-1.986 6.79-1.192 8.788 1.192L151.02 97.9l13.981-17.085c1.997-2.781 5.593-3.179 8.788-1.192 2.797 1.987 2.797 5.96.8 8.741l-15.58 20.265 15.58 20.662Zm-72.704-2.384c-10.386 0-18.775-7.947-18.775-18.278 0-9.934 8.389-18.278 18.775-18.278s18.775 8.344 18.775 18.278c-.4 10.33-8.788 18.278-18.775 18.278Zm-55.127 0c-10.386 0-18.775-7.947-18.775-18.278 0-9.934 8.389-18.278 18.775-18.278s18.775 8.344 18.775 18.278c0 10.33-8.389 18.278-18.775 18.278Zm55.127-48.476c-11.585 0-21.97 6.357-27.164 15.894-5.193-9.537-15.58-15.894-27.563-15.894-7.19 0-13.582 2.384-18.775 5.96V58.96c0-3.179-2.797-5.96-5.992-5.96C18.796 53 16 55.781 16 58.96v50.065c.4 16.689 13.981 29.801 30.76 29.801 11.983 0 22.37-6.755 27.563-16.291 5.193 9.536 15.579 16.291 27.163 16.291 17.178 0 31.159-13.51 31.159-30.595.4-16.291-13.582-29.801-30.76-29.801Z"/></svg>

<svg id="vector" xmlns="http://www.w3.org/2000/svg" width="192" height="192" viewBox="0 0 192 192"><path fill="#000000" d="M174.59,129.29C176.59,132.07 176.19,135.65 173.79,137.63C170.99,139.62 167,139.22 165,136.84L151.02,118.96L137.44,136.44C135.44,139.22 131.45,139.22 128.65,137.24C125.85,135.25 125.45,131.67 127.45,128.89L143.43,108.23L127.45,87.57C125.45,84.79 126.25,80.81 128.65,78.83C131.45,76.84 135.44,77.64 137.44,80.02L151.02,97.9L165,80.81C167,78.03 170.59,77.64 173.79,79.62C176.59,81.61 176.59,85.58 174.59,88.36L159.01,108.63L174.59,129.29L174.59,129.29ZM101.89,126.91C91.5,126.91 83.11,118.96 83.11,108.63C83.11,98.69 91.5,90.35 101.89,90.35C112.27,90.35 120.66,98.69 120.66,108.63C120.26,118.96 111.87,126.91 101.89,126.91ZM46.76,126.91C36.37,126.91 27.98,118.96 27.98,108.63C27.98,98.69 36.37,90.35 46.76,90.35C57.15,90.35 65.53,98.69 65.53,108.63C65.53,118.96 57.15,126.91 46.76,126.91ZM101.89,78.43C90.3,78.43 79.92,84.79 74.72,94.32C69.53,84.79 59.14,78.43 47.16,78.43C39.97,78.43 33.58,80.81 28.38,84.39L28.38,58.96C28.38,55.78 25.59,53 22.39,53C18.8,53 16,55.78 16,58.96L16,109.03C16.4,125.71 29.98,138.83 46.76,138.83C58.74,138.83 69.13,132.07 74.32,122.53C79.52,132.07 89.9,138.83 101.49,138.83C118.66,138.83 132.65,125.32 132.65,108.23C133.04,91.94 119.06,78.43 101.89,78.43Z" stroke-width="1" fill-rule="nonzero" stroke="#00000000" id="path_0"/></svg>
